common/src/main/resources/icons/plugins/gradle/expui/gradleNavigate.svg

<!--
  - The MIT License (MIT)
  -
  - Copyright (c) 2015-2024 Elior "Mallowigi" Boukhobza
  -
  - Permission is hereby granted, free of charge, to any person obtaining a copy
  - of this software and associated documentation files (the "Software"), to deal
  - in the Software without restriction, including without limitation the rights
  - to use, copy, modify, merge, publish, distribute, sublicense, and/or sell
  - copies of the Software, and to permit persons to whom the Software is
  - furnished to do so, subject to the following conditions:
  -
  - The above copyright notice and this permission notice shall be included in all
  - copies or substantial portions of the Software.
  -
  - THE SOFTWARE IS PROVIDED "AS IS", WITHOUT WARRANTY OF ANY KIND, EXPRESS OR
  - IMPLIED, INCLUDING BUT NOT LIMITED TO THE WARRANTIES OF MERCHANTABILITY,
  - FITNESS FOR A PARTICULAR PURPOSE AND NONINFRINGEMENT. IN NO EVENT SHALL THE
  - AUTHORS OR COPYRIGHT HOLDERS BE LIABLE FOR ANY CLAIM, DAMAGES OR OTHER
  - LIABILITY, WHETHER IN AN ACTION OF CONTRACT, TORT OR OTHERWISE, ARISING FROM,
  - OUT OF OR IN CONNECTION WITH THE SOFTWARE OR THE USE OR OTHER DEALINGS IN THE
  - SOFTWARE.
  -->

<svg data-big="true" xmlns="http://www.w3.org/2000/svg" width="16" height="16" viewBox="0 0 16 16">
  <g fill="none" fill-rule="evenodd">
    <path fill="#9575CD" fill-rule="nonzero"
          d="M8,10.5830161 L8,8 L3.18060694,8 C3.43979109,6.84409104 4.03649973,5.70851416 5.32624674,5.24389703 C5.32624674,5.24389703 5.60346407,5.90242781 5.96023822,6.47363372 C6.35613204,7.10739046 7.38827976,7.54541813 8.59234232,5.73250377 C8.59234232,5.73250377 6.97603355,7.52748919 6.23762736,6.29821073 C5.77274421,5.52423015 5.93165732,5.81112192 5.452226,4.8761245 C5.09943257,4.18809403 5.50981732,3.89057663 6.40261179,3.59474901 C7.29543488,3.29886412 9.26742955,2.81243404 11.2952972,4.28045961 C13.3231363,5.74848518 14.9431681,3.62857341 14.4183739,2.59854686 C14.1953686,2.16089154 13.8629655,2.00336885 13.612754,1.97358274 C13.3510012,1.94242188 13.120235,1.98037053 12.9043033,2.09759606 C12.831992,2.13686217 12.6255395,2.26906667 12.5102137,2.09699461 C12.4305423,1.97807929 12.3007542,1.68998461 12.2776718,1.63479439 C12.1701356,1.37771735 12.7387175,0.986115942 13.4310162,1.00037891 C13.9952738,1.01200695 14.7939633,1.2572841 15.240833,2.07797732 C16.0988035,3.57192255 15.3410379,5.27772143 14.5410597,6.6721123 C13.7411675,8.06638862 12.4718958,8.81370491 12.8937931,11.1923548 L11.3873976,11.1923548 C11.3873976,11.1923548 9.13207308,8.15633333 8,10.5830161 Z"/>
    <g fill="#9575CD" transform="rotate(180 3.5 8)">
      <rect width="2" height="5" x="2.765" y=".729" transform="rotate(45 3.765 3.23)"/>
      <polygon points="0 2 5 7 0 7"/>
    </g>
  </g>
</svg>

<svg xmlns="http://www.w3.org/2000/svg" width="16" height="16" data-big="true"><g fill="#9575CD" fill-rule="evenodd"><path fill-rule="nonzero" d="M8 10.583V8H3.18c.26-1.156.856-2.291 2.146-2.756 0 0 .277.658.634 1.23.396.633 1.428 1.071 2.632-.741 0 0-1.616 1.794-2.354.565-.465-.774-.306-.487-.786-1.422-.353-.688.058-.985.95-1.281.893-.296 2.865-.783 4.893.685s3.648-.651 3.123-1.681c-.223-.438-.555-.596-.805-.625a1.15 1.15 0 0 0-.709.124c-.072.039-.278.171-.394-.001a4 4 0 0 1-.232-.462c-.108-.257.46-.649 1.153-.635.564.012 1.363.257 1.81 1.078.858 1.494.1 3.2-.7 4.594s-2.07 2.142-1.647 4.52h-1.507S9.132 8.156 8 10.583"/><path d="M2.174 15.246.759 13.83l3.536-3.535 1.414 1.414z"/><path d="M7 14 2 9h5z"/></g></svg>
